X:1
T:Nukapu, 87.87.87
T:Edward John Hopkins, 1875
T:Nukapu, 87.87.87
T:Public Domain
C:Edward John Hopkins, 1875
Z:Public Domain
%%score ( 1 2 ) ( 3 4 )
L:1/8
M:none
K:F
V:1 treble 
V:2 treble 
V:3 bass 
V:4 bass 
V:1
 [FA]2 [FB]2 [Fc]2 [EA]2 | [DF]2 [DG]2 [DA]2 [^CF]2 | D2 [^CE]2 [CF]2 F2 | [FG]2 (AB) [FA]4 | %4
 [CF]2 [EG]2 [FA]2 [Gc]2 | F2 z A [FA]2 [FG]2 | [Ec]2 G2 [GA]2 [FA]2 | [F=B]2 (cd) [Ec]4 | %8
 [Dd]2 [Fd]2 [_Ed]2 [Fc]2 | [Fc]2 [FB]2 [GB]2 [DA]2 | [DB]2 [DA]2 [DG]2 [DF]2 | %11
 [CF]2 [CE]2 [CF]4 |] %12
V:2
 x8 | x8 | D2 x2 F2 x2 | x2 E2 x4 | x8 | =B3 F2 x3 | x2 G2 x4 | x2 F2 x4 | x8 | x8 | x8 | x8 |] %12
V:3
 [F,C]2 [D,B,]2 [C,G,]2 [C,C]2 | [D,A,]2 [B,,G,]2 [A,,E,]2 [A,,A,]2 | %2
 [B,,F,]2 [B,,G,]2 [A,,F,]2 [D,A,]2 | [B,,D]2 [C,C]2 [F,C]4 | A,2 [G,B,]2 [F,C]2 [E,G,]2 | %5
 [D,=B,]2 [C,C]2 [=B,,D]2 [B,,G,]2 | [C,G,]2 [E,C]2 [F,C]2 [D,D]2 | [G,D]2 (C=B,) [C,C]4 | %8
 [B,,F,]2 [D,B,]2 [G,B,]2 [A,_E]2 | [B,D]2 [D,D]2 [E,C]2 [^F,C]2 | %10
 [G,B,]2 [D,^F,]2 [B,,G,]2 [G,,B,]2 | [C,G,]2 [C,G,]2 [F,A,]4 |] %12
V:4
 x8 | x8 | x8 | x8 | A,2 x6 | x8 | x8 | x2 G,2 x4 | x8 | x8 | x8 | x8 |] %12

